src/assets/gmail-light.svg

<svg xmlns="http://www.w3.org/2000/svg" xmlns:xlink="http://www.w3.org/1999/xlink" viewBox="0,0,256,256" width="50px" height="50px" fill-rule="nonzero"><g fill="#222222" fill-rule="nonzero" stroke="none" stroke-width="1" stroke-linecap="butt" stroke-linejoin="miter" stroke-miterlimit="10" stroke-dasharray="" stroke-dashoffset="0" font-family="none" font-weight="none" font-size="none" text-anchor="none" style="mix-blend-mode: normal"><path d="M0,256v-256h256v256z" id="bgRectangle"></path></g><g fill="#ffffff" fill-rule="nonzero" stroke="none" stroke-width="1" stroke-linecap="butt" stroke-linejoin="miter" stroke-miterlimit="10" stroke-dasharray="" stroke-dashoffset="0" font-family="none" font-weight="none" font-size="none" text-anchor="none" style="mix-blend-mode: normal"><g transform="scale(5.12,5.12)"><path d="M12,23.403v-0.013v-13.001l-0.12,-0.089h-0.01l-2.73,-2.02c-1.67,-1.24 -4.05,-1.18 -5.53,0.28c-0.99,0.98 -1.61,2.34 -1.61,3.85v3.602zM38,23.39v0.013l10,-7.391v-3.602c0,-1.49 -0.6,-2.85 -1.58,-3.83c-1.46,-1.457 -3.765,-1.628 -5.424,-0.403l-2.876,2.123l-0.12,0.089zM14,24.868l10.406,7.692c0.353,0.261 0.836,0.261 1.189,0l10.405,-7.692v-13.001l-11,8.133l-11,-8.133zM38,25.889v15.111c0,0.552 0.448,1 1,1h6.5c1.381,0 2.5,-1.119 2.5,-2.5v-21.003zM12,25.889l-10,-7.392v21.003c0,1.381 1.119,2.5 2.5,2.5h6.5c0.552,0 1,-0.448 1,-1z"></path></g></g></svg>

<svg xmlns="http://www.w3.org/2000/svg"  viewBox="0 0 50 50" width="50px" height="50px"><path d="M12 23.403V23.39 10.389L11.88 10.3h-.01L9.14 8.28C7.47 7.04 5.09 7.1 3.61 8.56 2.62 9.54 2 10.9 2 12.41v3.602L12 23.403zM38 23.39v.013l10-7.391V12.41c0-1.49-.6-2.85-1.58-3.83-1.46-1.457-3.765-1.628-5.424-.403L38.12 10.3 38 10.389V23.39zM14 24.868l10.406 7.692c.353.261.836.261 1.189 0L36 24.868V11.867L25 20l-11-8.133V24.868zM38 25.889V41c0 .552.448 1 1 1h6.5c1.381 0 2.5-1.119 2.5-2.5V18.497L38 25.889zM12 25.889L2 18.497V39.5C2 40.881 3.119 42 4.5 42H11c.552 0 1-.448 1-1V25.889z"/></svg>
